SVG_Azure_Grouped/Deployment/Template Spec.svg

<?xml version="1.0" encoding="UTF-8" standalone="no"?>
<!-- Generated by Microsoft Visio, SVG Export Template Spec.svg Page-1 -->

<svg
   xmlns:dc="http://purl.org/dc/elements/1.1/"
   xmlns:cc="http://creativecommons.org/ns#"
   xmlns:rdf="http://www.w3.org/1999/02/22-rdf-syntax-ns#"
   xmlns:svg="http://www.w3.org/2000/svg"
   xmlns="http://www.w3.org/2000/svg"
   xmlns:sodipodi="http://sodipodi.sourceforge.net/DTD/sodipodi-0.dtd"
   xmlns:inkscape="http://www.inkscape.org/namespaces/inkscape"
   width="0.66930205in"
   height="0.78735679in"
   viewBox="0 0 48.189632 56.69"
   xml:space="preserve"
   class="st7"
   version="1.1"
   id="svg52"
   sodipodi:docname="Template Spec.svg"
   style="font-size:12px;overflow:visible;color-interpolation-filters:sRGB;fill:none;fill-rule:evenodd;stroke-linecap:square;stroke-miterlimit:3"
   inkscape:version="0.92.5 (2060ec1f9f, 2020-04-08)"><metadata
   id="metadata56"><rdf:RDF><cc:Work
       rdf:about=""><dc:format>image/svg+xml</dc:format><dc:type
         rdf:resource="http://purl.org/dc/dcmitype/StillImage" /></cc:Work></rdf:RDF></metadata><sodipodi:namedview
   pagecolor="#ffffff"
   bordercolor="#666666"
   borderopacity="1"
   objecttolerance="10"
   gridtolerance="10"
   guidetolerance="10"
   inkscape:pageopacity="0"
   inkscape:pageshadow="2"
   inkscape:window-width="640"
   inkscape:window-height="480"
   id="namedview54"
   showgrid="false"
   inkscape:zoom="1.4193119"
   inkscape:cx="32.125838"
   inkscape:cy="37.786193"
   inkscape:window-x="0"
   inkscape:window-y="0"
   inkscape:window-maximized="0"
   inkscape:current-layer="svg52" />
	<style
   type="text/css"
   id="style2">
	<![CDATA[
		.st1 {fill:#32bedd;stroke:none;stroke-linecap:butt;stroke-width:34}
		.st2 {fill:url(#grad0-8);stroke:none;stroke-linecap:butt;stroke-width:34}
		.st3 {fill:#ffffff;stroke:none;stroke-linecap:butt;stroke-width:34}
		.st4 {fill:#5e9624;stroke:none;stroke-linecap:butt;stroke-width:34}
		.st5 {fill:#76bc2d;stroke:none;stroke-linecap:butt;stroke-width:34}
		.st6 {fill:#86d633;stroke:none;stroke-linecap:butt;stroke-width:34}
		.st7 {fill:none;fill-rule:evenodd;font-size:12px;overflow:visible;stroke-linecap:square;stroke-miterlimit:3}
	]]>
	</style>

	<defs
   id="Patterns_And_Gradients">
		<linearGradient
   id="grad0-8"
   x1="0"
   y1="69.592961"
   x2="43.414046"
   y2="69.592961"
   gradientTransform="scale(0.90615834,1.1035599)"
   gradientUnits="userSpaceOnUse">
			<stop
   offset="0"
   stop-color="#198ab3"
   stop-opacity="1"
   id="stop4" />
			<stop
   offset="0.62"
   stop-color="#31d0f1"
   stop-opacity="1"
   id="stop6" />
			<stop
   offset="1"
   stop-color="#32d4f5"
   stop-opacity="1"
   id="stop8" />
		</linearGradient>
	</defs>
	<g
   id="g50"
   transform="translate(-34.000447,-34.0043)">
		<title
   id="title12">Page-1</title>
		<g
   id="group17087-1"
   transform="translate(34,-34.0157)">
			<title
   id="title14">Template Spec.17087</title>
			<g
   id="group17088-2">
				<title
   id="title16">Sheet.17088</title>
				<g
   id="shape17089-3">
					<title
   id="title18">Sheet.17089</title>
					<path
   d="M 14.75,68.02 H 3.44 A 3.44255,3.42158 -180 0 0 0,71.44 v 11.25 h 6.89 v -7.83 h 7.86 z m 30,0 H 33.44 v 6.84 h 7.86 v 7.83 h 6.89 V 71.44 a 3.44255,3.42158 -180 0 0 -3.44,-3.42 z m -3.45,42.02 v 7.82 h -7.86 v 6.85 h 11.31 a 3.44255,3.42158 -180 0 0 3.44,-3.42 v -11.25 z m -34.41,7.83 v -7.83 H 0 v 11.24 a 3.44255,3.42158 -180 0 0 3.44,3.43 h 11.31 v -6.84 z"
   class="st1"
   id="path20"
   inkscape:connector-curvature="0"
   style="fill:#32bedd;stroke:none;stroke-width:34;stroke-linecap:butt" />
				</g>
				<g
   id="shape17090-5"
   transform="translate(4.42566,-4.3987)">
					<title
   id="title23">Sheet.17090</title>
					<path
   d="m 1.97,124.71 h 35.4 a 1.97292,1.96091 -180 0 0 1.97,-1.96 v -44 A 1.97292,1.96091 -180 0 0 37.37,76.8 H 1.97 A 1.97292,1.96091 -180 0 0 0,78.75 v 44.02 a 1.97292,1.96091 -180 0 0 1.97,1.94 z"
   class="st2"
   id="path25"
   inkscape:connector-curvature="0"
   style="fill:url(#grad0-8);stroke:none;stroke-width:34;stroke-linecap:butt" />
				</g>
				<g
   id="shape17091-9"
   transform="translate(8.34801,-8.30718)">
					<title
   id="title28">Sheet.17091</title>
					<path
   d="m 0.98,124.71 h 29.53 a 0.986461,0.980454 -180 0 0 0.983106,-0.97712 L 31.49,85.61 A 0.986461,0.980454 -180 0 0 30.506894,84.629546 L 0.98,84.63 a 0.986461,0.980454 -180 0 0 -0.983106,0.980454 L 0,123.73 a 0.986461,0.980454 -180 0 0 0.983106,0.97712 z"
   class="st3"
   id="path30"
   inkscape:connector-curvature="0"
   style="fill:#ffffff;stroke:none;stroke-width:34;stroke-linecap:butt" />
				</g>
				<g
   id="shape17092-11"
   transform="translate(15.2432,-14.1732)">
					<title
   id="title33">Sheet.17092</title>
					<path
   d="m 0.98,124.71 h 15.74 a 0.986461,0.980454 -180 0 0 0.983106,-0.97712 L 17.7,119.33 a 0.986461,0.980454 -180 0 0 -0.983106,-0.97712 L 0.98,118.36 a 0.986461,0.980454 -180 0 0 -0.983106,0.97712 L 0,123.73 a 0.986461,0.980454 -180 0 0 0.983106,0.97712 z"
   class="st4"
   id="path35"
   inkscape:connector-curvature="0"
   style="fill:#5e9624;stroke:none;stroke-width:34;stroke-linecap:butt" />
				</g>
				<g
   id="shape17093-13"
   transform="translate(15.2432,-25.1683)">
					<title
   id="title38">Sheet.17093</title>
					<path
   d="m 0.98,124.71 h 15.74 a 0.986461,0.980454 -180 0 0 0.983106,-0.97712 L 17.7,119.33 a 0.986461,0.980454 -180 0 0 -0.983106,-0.98045 L 0.98,118.35 a 0.986461,0.980454 -180 0 0 -0.983106,0.98045 L 0,123.73 a 0.986461,0.980454 -180 0 0 0.983106,0.97712 z"
   class="st5"
   id="path40"
   inkscape:connector-curvature="0"
   style="fill:#76bc2d;stroke:none;stroke-width:34;stroke-linecap:butt" />
				</g>
				<g
   id="shape17094-15"
   transform="translate(15.2432,-36.1667)">
					<title
   id="title43">Sheet.17094</title>
					<path
   d="m 0.98,124.71 h 15.74 a 0.986461,0.980454 -180 0 0 0.983106,-0.97712 L 17.7,119.33 a 0.986461,0.980454 -180 0 0 -0.983106,-0.97712 L 0.98,118.36 a 0.986461,0.980454 -180 0 0 -0.983106,0.97712 L 0,123.73 a 0.986461,0.980454 -180 0 0 0.983106,0.97712 z"
   class="st6"
   id="path45"
   inkscape:connector-curvature="0"
   style="fill:#86d633;stroke:none;stroke-width:34;stroke-linecap:butt" />
				</g>
			</g>
		</g>
	</g>
</svg>

<?xml version="1.0" encoding="UTF-8" standalone="no"?>
<!DOCTYPE svg PUBLIC "-//W3C//DTD SVG 1.1//EN" "http://www.w3.org/Graphics/SVG/1.1/DTD/svg11.dtd">
<!-- Generated by Microsoft Visio, SVG Export Template Spec.svg Page-1 -->
<svg xmlns="http://www.w3.org/2000/svg" xmlns:xlink="http://www.w3.org/1999/xlink" xmlns:ev="http://www.w3.org/2001/xml-events"
		width="1.61374in" height="1.73206in" viewBox="0 0 116.189 124.709" xml:space="preserve" color-interpolation-filters="sRGB"
		class="st7">
	<style type="text/css">
	<![CDATA[
		.st1 {fill:#32bedd;stroke:none;stroke-linecap:butt;stroke-width:34}
		.st2 {fill:url(#grad0-8);stroke:none;stroke-linecap:butt;stroke-width:34}
		.st3 {fill:#ffffff;stroke:none;stroke-linecap:butt;stroke-width:34}
		.st4 {fill:#5e9624;stroke:none;stroke-linecap:butt;stroke-width:34}
		.st5 {fill:#76bc2d;stroke:none;stroke-linecap:butt;stroke-width:34}
		.st6 {fill:#86d633;stroke:none;stroke-linecap:butt;stroke-width:34}
		.st7 {fill:none;fill-rule:evenodd;font-size:12px;overflow:visible;stroke-linecap:square;stroke-miterlimit:3}
	]]>
	</style>

	<defs id="Patterns_And_Gradients">
		<linearGradient id="grad0-8" x1="0" y1="0" x2="1" y2="0" gradientTransform="rotate(-90 0.5 0.5)">
			<stop offset="0" stop-color="#198ab3" stop-opacity="1"/>
			<stop offset="0.62" stop-color="#31d0f1" stop-opacity="1"/>
			<stop offset="1" stop-color="#32d4f5" stop-opacity="1"/>
		</linearGradient>
	</defs>
	<g>
		<title>Page-1</title>
		<g id="group16694-1" transform="translate(34,-34.0157)">
			<title>Template Spec.16694</title>
			<g id="group16695-2">
				<title>Sheet.16695</title>
				<g id="shape16696-3">
					<title>Sheet.16696</title>
					<path d="M14.75 68.02 L3.44 68.02 A3.44255 3.42158 -180 0 0 -0 71.44 L0 82.69 L6.89 82.69 L6.89 74.86 L14.75
								 74.86 L14.75 68.02 ZM44.75 68.02 L33.44 68.02 L33.44 74.86 L41.3 74.86 L41.3 82.69 L48.19 82.69
								 L48.19 71.44 A3.44255 3.42158 -180 0 0 44.75 68.02 ZM41.3 110.04 L41.3 117.86 L33.44 117.86 L33.44
								 124.71 L44.75 124.71 A3.44255 3.42158 -180 0 0 48.19 121.29 L48.19 110.04 L41.3 110.04 ZM6.89 117.87
								 L6.89 110.04 L0 110.04 L0 121.28 A3.44255 3.42158 -180 0 0 3.44 124.71 L14.75 124.71 L14.75 117.87
								 L6.89 117.87 Z" class="st1"/>
				</g>
				<g id="shape16697-5" transform="translate(4.42566,-4.3987)">
					<title>Sheet.16697</title>
					<path d="M1.97 124.71 L37.37 124.71 A1.97292 1.96091 -180 0 0 39.34 122.75 L39.34 78.75 A1.97292 1.96091 -180
								 0 0 37.37 76.8 L1.97 76.8 A1.97292 1.96091 -180 0 0 -0 78.75 L0 122.77 A1.97292 1.96091 -180 0 0
								 1.97 124.71 Z" class="st2"/>
				</g>
				<g id="shape16698-9" transform="translate(8.34801,-8.30718)">
					<title>Sheet.16698</title>
					<path d="M0.98 124.71 L30.51 124.71 a0.986461 0.980454 -180 0 0 0.983106 -0.977119 L31.49 85.61 a0.986461 0.980454
								 -180 0 0 -0.983106 -0.980454 L0.98 84.63 a0.986461 0.980454 -180 0 0 -0.983106 0.980454 L0 123.73
								 a0.986461 0.980454 -180 0 0 0.983106 0.977119 Z" class="st3"/>
				</g>
				<g id="shape16699-11" transform="translate(15.2432,-14.1732)">
					<title>Sheet.16699</title>
					<path d="M0.98 124.71 L16.72 124.71 a0.986461 0.980454 -180 0 0 0.983106 -0.977119 L17.7 119.33 a0.986461 0.980454
								 -180 0 0 -0.983106 -0.977119 L0.98 118.36 a0.986461 0.980454 -180 0 0 -0.983106 0.977119 L0 123.73
								 a0.986461 0.980454 -180 0 0 0.983106 0.977119 Z" class="st4"/>
				</g>
				<g id="shape16700-13" transform="translate(15.2432,-25.1683)">
					<title>Sheet.16700</title>
					<path d="M0.98 124.71 L16.72 124.71 a0.986461 0.980454 -180 0 0 0.983106 -0.977119 L17.7 119.33 a0.986461 0.980454
								 -180 0 0 -0.983106 -0.980454 L0.98 118.35 a0.986461 0.980454 -180 0 0 -0.983106 0.980454 L0 123.73
								 a0.986461 0.980454 -180 0 0 0.983106 0.977119 Z" class="st5"/>
				</g>
				<g id="shape16701-15" transform="translate(15.2432,-36.1667)">
					<title>Sheet.16701</title>
					<path d="M0.98 124.71 L16.72 124.71 a0.986461 0.980454 -180 0 0 0.983106 -0.977119 L17.7 119.33 a0.986461 0.980454
								 -180 0 0 -0.983106 -0.977119 L0.98 118.36 a0.986461 0.980454 -180 0 0 -0.983106 0.977119 L0 123.73
								 a0.986461 0.980454 -180 0 0 0.983106 0.977119 Z" class="st6"/>
				</g>
			</g>
		</g>
	</g>
</svg>
